static/img/icn/icn_kt.svg

<?xml version="1.0" encoding="UTF-8"?>
<svg width="2032px" height="1875px" viewBox="0 0 2032 1875" version="1.1" xmlns="http://www.w3.org/2000/svg" xmlns:xlink="http://www.w3.org/1999/xlink">
    <!-- Generator: Sketch 52.3 (67297) - http://www.bohemiancoding.com/sketch -->
    <title>Shape</title>
    <desc>Created with Sketch.</desc>
    <g id="Page-1" stroke="none" stroke-width="1" fill="none" fill-rule="evenodd">
        <g id="icn_kt" fill="#2C4997" fill-rule="nonzero">
            <path d="M1015.62,0 C454.71,0 0,358.53 0,800.78 C0,1086.71 190.1,1337.6 476.05,1479.27 C460.5,1532.92 376.05,1824.42 372.72,1847.27 C372.72,1847.27 370.72,1864.48 381.85,1871.04 C392.98,1877.6 406.09,1872.51 406.09,1872.51 C438.09,1868.05 776.63,1630.21 835.23,1588.91 C894.989636,1597.33967 955.268764,1601.55008 1015.62,1601.51 C1576.54,1601.51 2031.25,1243 2031.25,800.73 C2031.25,358.46 1576.54,0 1015.62,0 Z M512.7,1024.37 C512.7,1055.22 486.42,1080.37 454.1,1080.37 C421.78,1080.37 395.51,1055.27 395.51,1024.37 L395.51,676.27 L304.08,676.27 C283.401376,676.543004 264.175638,665.667492 253.756714,647.803393 C243.33779,629.939295 243.33779,607.850705 253.756714,589.986607 C264.175638,572.122508 283.401376,561.246996 304.08,561.52 L604.08,561.52 C624.758624,561.246996 643.984362,572.122508 654.403286,589.986607 C664.82221,607.850705 664.82221,629.939295 654.403286,647.803393 C643.984362,665.667492 624.758624,676.543004 604.08,676.27 L512.7,676.27 L512.7,1024.37 Z M1005.14,1071.48 C993.447344,1076.81617 980.742733,1079.57196 967.89,1079.56 C943.46,1079.56 924.77,1069.64 919.13,1053.68 L890.13,977.68 L711.45,977.68 L682.45,1053.68 C676.84,1069.61 658.16,1079.52 633.72,1079.52 C620.869166,1079.53428 608.166631,1076.77479 596.48,1071.43 C580.32,1063.98 564.8,1043.5 582.59,988.23 L722.75,619.33 C732.62,591.27 762.61,562.33 800.75,561.49 C839.02,562.35 869.01,591.27 878.91,619.38 L1019,988.16 C1036.82,1043.55 1021.29,1064.05 1005.14,1071.48 Z M1301.27,1071.78 L1113.27,1071.78 C1082.27,1071.78 1057.12,1047.68 1057.12,1018.07 L1057.12,620.07 C1057.12,587.75 1083.95,561.47 1116.93,561.47 C1149.91,561.47 1176.75,587.75 1176.75,620.07 L1176.75,964.36 L1301.26,964.36 C1332.26,964.36 1357.41,988.46 1357.41,1018.07 C1357.41,1047.68 1332.24,1071.78 1301.27,1071.78 Z M1760,1027.66 C1756.71029,1051.12086 1739.61592,1070.29196 1716.68396,1076.23834 C1693.75199,1082.18472 1669.49568,1073.73607 1655.22,1054.83 L1517.75,872.76 L1497.42,893.1 L1497.42,1020.94 C1497.38144,1053.29504 1471.16504,1079.51592 1438.81,1079.56 C1406.46144,1079.53244 1380.24308,1053.31855 1380.21,1020.97 L1380.21,620.12 C1379.93413,599.003604 1391.04155,579.372124 1409.28429,568.733487 C1427.52704,558.094851 1450.08296,558.094851 1468.32571,568.733487 C1486.56845,579.372124 1497.67587,599.003604 1497.4,620.12 L1497.4,746.05 L1660.88,582.58 C1669.54576,574.085276 1681.24636,569.405035 1693.38,569.58 C1708.01,569.58 1722.7,575.89 1733.7,586.89 C1743.77968,596.742788 1749.90792,609.941811 1750.93,624 C1751.78,637.82 1747.18,650.49 1738,659.68 L1604.47,793.18 L1748.7,984.25 C1758.12792,996.622906 1762.19855,1012.26062 1760,1027.66 Z" id="Shape"></path>
        </g>
    </g>
</svg>

<svg xmlns="http://www.w3.org/2000/svg" viewBox="0 0 2031.25 1874.45"><defs><style>.cls-1{fill:#4a6ce2}</style></defs><g id="Layer_2" data-name="Layer 2"><g id="Layer_1-2" data-name="Layer 1"><path d="M800.78 707.68l-58.52 166.26h117.05l-58.53-166.26z" class="cls-1"/><path d="M1015.62 0C454.71 0 0 358.53 0 800.78c0 285.93 190.1 536.82 476.05 678.49-15.55 53.65-100 345.15-103.33 368 0 0-2 17.21 9.13 23.77s24.24 1.47 24.24 1.47c32-4.46 370.54-242.3 429.14-283.6a1285.37 1285.37 0 0 0 180.39 12.6c560.92 0 1015.63-358.51 1015.63-800.78S1576.54 0 1015.62 0zM512.7 1024.37c0 30.85-26.28 56-58.6 56s-58.59-25.1-58.59-56v-348.1h-91.43a57.38 57.38 0 1 1 0-114.75h300a57.38 57.38 0 1 1 0 114.75H512.7zm492.44 47.11a89.52 89.52 0 0 1-37.25 8.08c-24.43 0-43.12-9.92-48.76-25.88l-29-76H711.45l-29 76c-5.61 15.93-24.29 25.84-48.73 25.84a89.3 89.3 0 0 1-37.24-8.09c-16.16-7.45-31.68-27.93-13.89-83.2l140.16-368.9c9.87-28.06 39.86-57 78-57.84 38.27.86 68.26 29.78 78.16 57.89L1019 988.16c17.82 55.39 2.29 75.89-13.86 83.32zm296.13.3h-188c-31 0-56.15-24.1-56.15-53.71v-398c0-32.32 26.83-58.6 59.81-58.6s59.82 26.28 59.82 58.6v344.29h124.51c31 0 56.15 24.1 56.15 53.71s-25.17 53.71-56.14 53.71zm458.73-44.12a58.59 58.59 0 0 1-104.78 27.17l-137.47-182.07-20.33 20.34v127.84a58.69 58.69 0 0 1-58.61 58.62 58.65 58.65 0 0 1-58.6-58.59V620.12a58.6 58.6 0 1 1 117.19 0v125.93l163.48-163.47a45.49 45.49 0 0 1 32.5-13c14.63 0 29.32 6.31 40.32 17.31a57.75 57.75 0 0 1 17.23 37.11c.85 13.82-3.75 26.49-12.93 35.68l-133.53 133.5 144.23 191.07a58.08 58.08 0 0 1 11.3 43.41z" class="cls-1"/></g></g></svg>
